svg/u1f415.svg

<svg viewBox="0 0 128 128" xmlns="http://www.w3.org/2000/svg">
  <path d="M28.94,63.15c0,0-2.39,6.9-0.99,14.22c1.41,7.32,3.38,14.08,3.38,14.08s0.42,14.36,0,15.91 c-0.42,1.55-3.66,3.52-3.66,6.34s1.03,6.38,6.24,7.23s9.43-0.89,11.17-3c2.51-3.05,2.02-5.21,2.02-7.46c0-2.25,0.14-15.2,0.7-17.18 c0.56-1.97,1.41-3.1,2.96-2.96c1.55,0.14,3.24,2.53,3.38,7.04c0.14,4.5,0.28,12.39,0.14,13.94c-0.14,1.55-1.55,6.76-0.42,8.87 c1.13,2.11,6.24,4.16,10.18,3.94c5.16-0.28,8.26-3.52,8.54-6.05c0.28-2.53-1.41-8.31-1.41-10c0-1.69,1.97-13.23,2.53-13.94 c0.56-0.7,2.28-0.55,6.05-2.25c3.43-1.55,5.26-3.1,5.26-3.1s0.09,10-0.05,11.12c-0.14,1.13-3.52,4.65-2.96,7.32 c0.56,2.67,3.86,4.23,6.8,4.5c4.97,0.47,9.81-3.38,11.07-6.76c1.27-3.38,0.7-7.6,0.42-9.85c-0.28-2.25-0.28-10.14,0-12.25 c0.28-2.11,0.74-3.39,0.92-4.5c0.28-1.83,0.21-3.87,0.21-3.87s4.86,0,7.74-1.9s5.91-5.21,7.25-9.29c1.31-3.99,0.99-5.21-0.14-5.35 c-1.13-0.14-6.19,6.96-10.49,7.18c-6.83,0.35-6.15-6.97-11.36-11.4c-5.87-5-15.02-5.63-15.02-5.63s1.58-5.91,1.6-10.28 c0.07-19.08-9.22-25.55-9.22-25.55S60.61,3.95,47.94,4.51S25.98,15.14,25.98,15.14L19.01,45.9c0,0,1.76,5.91,4.58,10.21 C26.55,60.61,28.94,63.15,28.94,63.15z" fill="#FFD2B1"/>
  <path d="M98.27,58.29" fill="none" stroke="#6BA3AB" stroke-miterlimit="10"/>
  <path d="M20.14,8.32C9.79,8.53,4.32,17.35,4.16,22.75c-0.09,3.17-1.34,26.21,11.4,26.68 c5.11,0.19,8.91-5.74,10.84-12.46c2.43-8.47,2.32-16.96,2.6-19.22c0.45-3.61,1.2-6.26,1.2-6.26S28.94,8.14,20.14,8.32z" fill="#865B52"/>
  <path d="M75.54,4.8c11.26,0.42,15.1,5.41,16.19,8.31c1.2,3.17,2.25,14.48,0.49,22.03 c-1.43,6.16-3.59,9.29-8.66,9.08c-4.64-0.19-6.99-6.88-10.49-15.98c-3.38-8.8-5.97-16.68-6.41-17.81c-0.56-1.48-1.76-2.11-1.76-2.11 S67.15,4.48,75.54,4.8z" fill="#865B52"/>
  <path d="M62.66,27.67c-5.56,0.35-8.22,6.53-7.04,12.74c1.27,6.69,5.66,9.86,11.19,9.15 c6.05-0.77,7.88-7.67,7.11-12.88C73.21,31.94,70.53,27.17,62.66,27.67z" fill="#D27856"/>
  <path d="M69.2,39c0,2.92-1.62,5.36-4.19,5.29c-3.49-0.1-4.4-3.19-4.33-5.79c0.08-3.04,1.9-4.48,4.5-4.41 C67.5,34.14,69.2,36.08,69.2,39z" fill="#060401"/>
  <path d="M39.85,40.61c0,3.04-1.62,5.58-4.19,5.5c-3.49-0.1-4.4-3.32-4.33-6.03c0.08-3.17,2.25-4.52,4.29-4.37 C37.93,35.88,39.85,37.57,39.85,40.61z" fill="#060401"/>
  <path d="M53.22,57.59c0,0,6.12-0.63,5.84-5.07c-0.28-4.43-4.43-4.72-7.67-4.65 c-3.24,0.07-7.88,1.76-7.39,5.49c0.49,3.73,5.77,4.22,5.77,4.22s-0.01,2.76-1.83,2.96c-1.97,0.21-4.79-2.82-5.56-3.59 c-0.77-0.77-1.97-0.49-2.39,0.14s-0.14,2.04,1.06,3.24s4.01,4.22,6.83,3.94c2.82-0.28,2.89-1.76,4.01-1.83 c1.13-0.07,1.06,1.62,3.87,1.55c1.98-0.05,5.97-3.53,6.69-4.15c1.62-1.41,2.04-2.82,1.34-3.73s-2.67,0.42-3.73,1.2 c-1.06,0.77-2.77,2.59-4.43,2.89C52.87,60.69,53.22,57.59,53.22,57.59z" fill="#060401"/>
  <path d="M78.21,50.99c0,0-1.33,2.92-2.44,5.26c-1.34,2.82-3.26,5.28-3.26,5.28s2.17,14.84,15.08,13.56 c4.62-0.46,8.12-4.08,8.45-7.92c0.56-6.48-1.9-9.51-5.72-12.47C84.13,49.92,78.21,50.99,78.21,50.99z" fill="#D27856"/>
  <path d="M69.27,74.2c-2.29,2.1-1.06,6.05,1.97,6.48c3.03,0.42,4.66-2.1,4.43-4.01 C75.33,73.71,71.88,71.81,69.27,74.2z" fill="#D27856"/>
  <path d="M39.36,70.3c0,0-2.02,5.54,2.25,12.48c1.82,2.95,5.87,4.61,8.73,4.5c3.02-0.11,5.75-1.16,8.09-4.08 c3.73-4.65,2.67-12.39,2.67-12.39s-5.91,2.43-11.33,2.25C44,72.88,39.36,70.3,39.36,70.3z" fill="#D27856"/>
  <path d="M31.99,112.7c-1.47-0.45-2.06,1.83-2.16,3.28s-0.09,3.33,1.22,3.8c1.31,0.47,1.05-2.32,1.17-3.24 C32.46,114.77,33.54,113.17,31.99,112.7z" fill="#D27856"/>
  <path d="M37.76,113.55c-0.88-0.04-1.81,0.85-1.92,3.43c-0.09,2.16,0,3.94,1.22,4.04 c1.64,0.13,1.18-1.97,1.27-3.71C38.37,116.32,39.59,113.64,37.76,113.55z" fill="#D27856"/>
  <path d="M60.15,116.36c-1.41,0-1.45,1.6-1.45,3.33c0,1.74-0.36,3.89,1.22,4.08c1.92,0.23,1.55-2.35,1.55-3.8 C61.46,118.71,61.69,116.36,60.15,116.36z" fill="#D27856"/>
  <path d="M66.53,116.04c-1.13,0.23-1.03,1.78-0.99,3.66c0.05,1.88-0.23,3.87,1.36,3.71 c1.36-0.14,1.27-2.35,1.22-4.04C68.08,117.91,68.27,115.67,66.53,116.04z" fill="#D27856"/>
  <path d="M85.86,103.81c-0.97-0.19-2.07,0.63-2.35,2.82c-0.23,1.88-0.14,3.53,1.5,3.89 c0.84,0.19,0.99-1.97,1.03-3.52C86.09,105.66,87.08,104.05,85.86,103.81z" fill="#D27856"/>
  <path d="M91.16,104.95c-0.93-0.15-1.84,0.42-2.08,2.75c-0.14,1.36-0.64,3.8,1.05,3.89 c1.31,0.06,1.21-2.09,1.33-3.21C91.65,106.61,92.69,105.21,91.16,104.95z" fill="#D27856"/>
</svg>

<svg viewBox="0 0 128 128" xmlns="http://www.w3.org/2000/svg">
  <defs/>
  <path d="M28.94,63.15 C28.94,63.15 26.55,70.05 27.95,77.37 C29.36,84.69 31.33,91.45 31.33,91.45 C31.33,91.45 31.75,105.81 31.33,107.36 C30.91,108.91 27.67,110.88 27.67,113.7 C27.67,116.52 28.7,120.08 33.91,120.93 C39.12,121.78 43.34,120.04 45.08,117.93 C47.59,114.88 47.1,112.72 47.1,110.47 C47.1,108.22 47.24,95.27 47.8,93.29 C48.36,91.32 49.21,90.19 50.76,90.33 C52.31,90.47 54,92.86 54.14,97.37 C54.28,101.87 54.42,109.76 54.28,111.31 C54.14,112.86 52.73,118.07 53.86,120.18 C54.99,122.29 60.1,124.34 64.04,124.12 C69.2,123.84 72.3,120.6 72.58,118.07 C72.86,115.54 71.17,109.76 71.17,108.07 C71.17,106.38 73.14,94.84 73.7,94.13 C74.26,93.43 75.98,93.58 79.75,91.88 C83.18,90.33 85.01,88.78 85.01,88.78 C85.01,88.78 85.1,98.78 84.96,99.9 C84.82,101.03 81.44,104.55 82,107.22 C82.56,109.89 85.86,111.45 88.8,111.72 C93.77,112.19 98.61,108.34 99.87,104.96 C101.14,101.58 100.57,97.36 100.29,95.11 C100.01,92.86 100.01,84.97 100.29,82.86 C100.57,80.75 101.03,79.47 101.21,78.36 C101.49,76.53 101.42,74.49 101.42,74.49 C101.42,74.49 106.28,74.49 109.16,72.59 C112.04,70.69 115.07,67.38 116.41,63.3 C117.72,59.31 117.4,58.09 116.27,57.95 C115.14,57.81 110.08,64.91 105.78,65.13 C98.95,65.48 99.63,58.16 94.42,53.73 C88.55,48.73 79.4,48.1 79.4,48.1 C79.4,48.1 80.98,42.19 81,37.82 C81.07,18.74 71.78,12.27 71.78,12.27 C71.78,12.27 60.61,3.95 47.94,4.51 C35.27,5.07 25.98,15.14 25.98,15.14 L19.01,45.9 C19.01,45.9 20.77,51.81 23.59,56.11 C26.55,60.61 28.94,63.15 28.94,63.15 Z" fill="#FFD2B1"/>
  <path d="M20.14,8.32 C9.79,8.53 4.32,17.35 4.16,22.75 C4.07,25.92 2.82,48.96 15.56,49.43 C20.67,49.62 24.47,43.69 26.4,36.97 C28.83,28.5 28.72,20.01 29,17.75 C29.45,14.14 30.2,11.49 30.2,11.49 C30.2,11.49 28.94,8.14 20.14,8.32 Z" fill="#865B52"/>
  <path d="M75.54,4.8 C86.8,5.22 90.64,10.21 91.73,13.11 C92.93,16.28 93.98,27.59 92.22,35.14 C90.79,41.3 88.63,44.43 83.56,44.22 C78.92,44.03 76.57,37.34 73.07,28.24 C69.69,19.44 67.1,11.56 66.66,10.43 C66.1,8.95 64.9,8.32 64.9,8.32 C64.9,8.32 67.15,4.48 75.54,4.8 Z" fill="#865B52"/>
  <path d="M62.66,27.67 C57.1,28.02 54.44,34.2 55.62,40.41 C56.89,47.1 61.28,50.27 66.81,49.56 C72.86,48.79 74.69,41.89 73.92,36.68 C73.21,31.94 70.53,27.17 62.66,27.67 Z" fill="#D27856"/>
  <path d="M69.2,39 C69.2,41.92 67.58,44.36 65.01,44.29 C61.52,44.19 60.61,41.1 60.68,38.5 C60.76,35.46 62.58,34.02 65.18,34.09 C67.5,34.14 69.2,36.08 69.2,39 Z" fill="#060401"/>
  <path d="M39.85,40.61 C39.85,43.65 38.23,46.19 35.66,46.11 C32.17,46.01 31.26,42.79 31.33,40.08 C31.41,36.91 33.58,35.56 35.62,35.71 C37.93,35.88 39.85,37.57 39.85,40.61 Z" fill="#060401"/>
  <path d="M53.22,57.59 C53.22,57.59 59.34,56.96 59.06,52.52 C58.78,48.09 54.63,47.8 51.39,47.87 C48.15,47.94 43.51,49.63 44,53.36 C44.49,57.09 49.77,57.58 49.77,57.58 C49.77,57.58 49.76,60.34 47.94,60.54 C45.97,60.75 43.15,57.72 42.38,56.95 C41.61,56.18 40.41,56.46 39.99,57.09 C39.57,57.72 39.85,59.13 41.05,60.33 C42.25,61.53 45.06,64.55 47.88,64.27 C50.7,63.99 50.77,62.51 51.89,62.44 C53.02,62.37 52.95,64.06 55.76,63.99 C57.74,63.94 61.73,60.46 62.45,59.84 C64.07,58.43 64.49,57.02 63.79,56.11 C63.09,55.2 61.12,56.53 60.06,57.31 C59,58.08 57.29,59.9 55.63,60.2 C52.87,60.69 53.22,57.59 53.22,57.59 Z" fill="#060401"/>
  <path d="M78.21,50.99 C78.21,50.99 76.88,53.91 75.77,56.25 C74.43,59.07 72.51,61.53 72.51,61.53 C72.51,61.53 74.68,76.37 87.59,75.09 C92.21,74.63 95.71,71.01 96.04,67.17 C96.6,60.69 94.14,57.66 90.32,54.7 C84.13,49.92 78.21,50.99 78.21,50.99 Z" fill="#D27856"/>
  <path d="M69.27,74.2 C66.98,76.3 68.21,80.25 71.24,80.68 C74.27,81.1 75.9,78.58 75.67,76.67 C75.33,73.71 71.88,71.81 69.27,74.2 Z" fill="#D27856"/>
  <path d="M39.36,70.3 C39.36,70.3 37.34,75.84 41.61,82.78 C43.43,85.73 47.48,87.39 50.34,87.28 C53.36,87.17 56.09,86.12 58.43,83.2 C62.16,78.55 61.1,70.81 61.1,70.81 C61.1,70.81 55.19,73.24 49.77,73.06 C44,72.88 39.36,70.3 39.36,70.3 Z" fill="#D27856"/>
  <path d="M31.99,112.7 C30.52,112.25 29.93,114.53 29.83,115.98 C29.73,117.43 29.74,119.31 31.05,119.78 C32.36,120.25 32.1,117.46 32.22,116.54 C32.46,114.77 33.54,113.17 31.99,112.7 Z" fill="#D27856"/>
  <path d="M37.76,113.55 C36.88,113.51 35.95,114.4 35.84,116.98 C35.75,119.14 35.84,120.92 37.06,121.02 C38.7,121.15 38.24,119.05 38.33,117.31 C38.37,116.32 39.59,113.64 37.76,113.55 Z" fill="#D27856"/>
  <path d="M60.15,116.36 C58.74,116.36 58.7,117.96 58.7,119.69 C58.7,121.43 58.34,123.58 59.92,123.77 C61.84,124 61.47,121.42 61.47,119.97 C61.46,118.71 61.69,116.36 60.15,116.36 Z" fill="#D27856"/>
  <path d="M66.53,116.04 C65.4,116.27 65.5,117.82 65.54,119.7 C65.59,121.58 65.31,123.57 66.9,123.41 C68.26,123.27 68.17,121.06 68.12,119.37 C68.08,117.91 68.27,115.67 66.53,116.04 Z" fill="#D27856"/>
  <path d="M85.86,103.81 C84.89,103.62 83.79,104.44 83.51,106.63 C83.28,108.51 83.37,110.16 85.01,110.52 C85.85,110.71 86,108.55 86.04,107 C86.09,105.66 87.08,104.05 85.86,103.81 Z" fill="#D27856"/>
  <path d="M91.16,104.95 C90.23,104.8 89.32,105.37 89.08,107.7 C88.94,109.06 88.44,111.5 90.13,111.59 C91.44,111.65 91.34,109.5 91.46,108.38 C91.65,106.61 92.69,105.21 91.16,104.95 Z" fill="#D27856"/>
</svg>
